X: 100
T: Missa O salutaris hostia / Credo
N: Derived from Rue1022c-Missa_O_salutaris_hostia-Credo.krn
C: Pierre de la Rue
%%abc-version 2.0
%%abcx-abcm2ps-target-version 5.9.1 (29 Sep 2008)
%%abc-creator hum2abc beta
%%abcx-conversion-date 2019/02/17 08:01:14
%%abc-edited-by Jesse Rodin
%%abc-edited-by Chris Gage 03-28-2013
%%abcx-initial-encoding-date 2013/07/28/
%%humdrum-veritas 1618194537
%%humdrum-veritas-data 1083895581
%%linebreak <none>
%%barnumbers 0
L: 1/4
M: 4/2
Q: 1/2=120
%%staves [1 2 3 4]
V: 1 clef=treble
V: 2 clef=treble-8
V: 3 clef=treble-8
V: 4 clef=bass
K: F
[V:1] G8 | 
[V:2] z8 | 
[V:3] z8 | 
[V:4] z8 | 
[V:1] G8 | 
[V:2] z8 | 
[V:3] z8 | 
[V:4] z8 | 
[V:1] C4C4 | 
[V:2] c8 | 
[V:3] z8 | 
[V:4] z8 | 
[V:1] E2F2G4 | 
[V:2] c8 | 
[V:3] z8 | 
[V:4] z8 | 
[V:1] A8 | 
[V:2] F4F4 | 
[V:3] z8 | 
[V:4] z8 | 
[V:1] z4A4 | 
[V:2] A2B2c4 | 
[V:3] z8 | 
[V:4] z8 | 
[V:1] B3AGABc | 
[V:2] d8 | 
[V:3] G8 | 
[V:4] z8 | 
[V:1] d2c4=B2 | 
[V:2] z4d4 | 
[V:3] G8 | 
[V:4] z8 | 
[V:1] c4c2c2- | 
[V:2] e3dcdef | 
[V:3] C4C4 | 
[V:4] C,8 | 
[V:1] cBA2G4 | 
[V:2] g2f4e2 | 
[V:3] E2F2G4 | 
[V:4] C,8 | 
[V:1] z2c3BA2- | 
[V:2] f4f2f2- | 
[V:3] A8- | 
[V:4] F,,4F,,4 | 
[V:1] A2GFE4 | 
[V:2] fed2c4 | 
[V:3] A8- | 
[V:4] A,,2B,,2C,4 | 
[V:1] A8- | 
[V:2] z2f3ed2- | 
[V:3] A8- | 
[V:4] D,8- | 
[V:1] A4F4 | 
[V:2] d2cBA4 | 
[V:3] A8- | 
[V:4] D,8- | 
[V:1] F8 ||  
[V:2] d8 ||  
[V:3] A8 ||  
[V:4] D,8 ||  
[V:1]  [K:F] [K:clef=treble][M:2/1]A8 | 
[V:2]  [K:F] [K:clef=treble-8][M:2/1]z8 | 
[V:3]  [K:F] [K:clef=treble-8][M:2/1]z8 | 
[V:4]  [K:F] [K:clef=bass][M:2/1]z8 | 
[V:1] A4A4 | 
[V:2] z8 | 
[V:3] z8 | 
[V:4] z8 | 
[V:1] B4A4 | 
[V:2] d8 | 
[V:3] z8 | 
[V:4] z8 | 
[V:1] B2AGA4 | 
[V:2] d4d4 | 
[V:3] z8 | 
[V:4] z8 | 
[V:1] G2c4B2 | 
[V:2] e4d4 | 
[V:3] z8 | 
[V:4] z8 | 
[V:1] c3AB2A2- | 
[V:2] e2dcd4 | 
[V:3] z8 | 
[V:4] z8 | 
[V:1] A2GFG3F | 
[V:2] c2f4e2 | 
[V:3] z8 | 
[V:4] z8 | 
[V:1] D4z2A2 | 
[V:2] f3de2d2- | 
[V:3] z8 | 
[V:4] z8 | 
[V:1] A4A4 | 
[V:2] d2cBc3B | 
[V:3] z8 | 
[V:4] z8 | 
[V:1] B4B2B2- | 
[V:2] G4z2d2 | 
[V:3] z8 | 
[V:4] z8 | 
[V:1] B2AGF3G | 
[V:2] d4d4 | 
[V:3] z8 | 
[V:4] z8 | 
[V:1] G4c2c2- | 
[V:2] _e4_e2_e2- | 
[V:3] z8 | 
[V:4] z8 | 
[V:1] c2BAG4 | 
[V:2] e2dcB3c | 
[V:3] z8 | 
[V:4] z8 | 
[V:1] A8 | 
[V:2] c4f2f2- | 
[V:3] A8 | 
[V:4] z8 | 
[V:1] z8 | 
[V:2] f2edc4 | 
[V:3] A4A4 | 
[V:4] z8 | 
[V:1] z8 | 
[V:2] d8- | 
[V:3] B4A4 | 
[V:4] D,8 | 
[V:1] z8 | 
[V:2] d8 | 
[V:3] B2AGA4 | 
[V:4] D,4D,4 | 
[V:1] z8 | 
[V:2] z8 | 
[V:3] G2c4B2 | 
[V:4] E,4D,4 | 
[V:1] z8 | 
[V:2] z8 | 
[V:3] c3AB2A2- | 
[V:4] E,2D,C,D,4 | 
[V:1] z8 | 
[V:2] z8 | 
[V:3] A2GFG3F | 
[V:4] C,2F,4E,2 | 
[V:1] z8 | 
[V:2] z8 | 
[V:3] D4z2A2 | 
[V:4] F,3D,E,2D,2- | 
[V:1] z8 | 
[V:2] z8 | 
[V:3] A4A4 | 
[V:4] D,2C,B,,C,3B,, | 
[V:1] z8 | 
[V:2] z8 | 
[V:3] B4B2B2- | 
[V:4] G,,4z2D,2 | 
[V:1] z8 | 
[V:2] z8 | 
[V:3] B2AGF3G | 
[V:4] D,4D,4 | 
[V:1] G8 | 
[V:2] z8 | 
[V:3] G4c2c2- | 
[V:4] _E,4E,2E,2- | 
[V:1] G4G4 | 
[V:2] z8 | 
[V:3] c2BAG4 | 
[V:4] E,2D,C,B,,3C, | 
[V:1] E4C2c2 | 
[V:2] c8 | 
[V:3] A8- | 
[V:4] C,4F,2F,2- | 
[V:1] c2c3BAG | 
[V:2] c4c4 | 
[V:3] A8 | 
[V:4] F,2E,D,C,4 | 
[V:1] F4A4 | 
[V:2] A4F2f2 | 
[V:3] z8 | 
[V:4] D,8- | 
[V:1] A2A3GFE | 
[V:2] f2f3edc | 
[V:3] z8 | 
[V:4] D,8 | 
[V:1] D4z2D2 | 
[V:2] B4d4 | 
[V:3] z8 | 
[V:4] z8 | 
[V:1] F4F4 | 
[V:2] d2d3cBA | 
[V:3] z8 | 
[V:4] z8 | 
[V:1] G3FE4 | 
[V:2] G4z2G2 | 
[V:3] z8 | 
[V:4] z8 | 
[V:1] D8 | 
[V:2] B4B4 | 
[V:3] z8 | 
[V:4] z8 | 
[V:1] A4A2A2 | 
[V:2] c3BA4 | 
[V:3] z8 | 
[V:4] z8 | 
[V:1] B2d3cB2- | 
[V:2] G8 | 
[V:3] z8 | 
[V:4] z8 | 
[V:1] B2AG^F3E | 
[V:2] d4d2d2 | 
[V:3] z8 | 
[V:4] z8 | 
[V:1] G8 | 
[V:2] e2g3fe2- | 
[V:3] G8 | 
[V:4] z8 | 
[V:1] z4G4- | 
[V:2] e2dc=B3A | 
[V:3] G4G4 | 
[V:4] z8 | 
[V:1] G4G4 | 
[V:2] c8 | 
[V:3] E4C2c2 | 
[V:4] C,8 | 
[V:1] G4G4 | 
[V:2] z4c4- | 
[V:3] c2c3BAG | 
[V:4] C,4C,4 | 
[V:1] A8 | 
[V:2] c4c4 | 
[V:3] F4A4 | 
[V:4] A,,4F,,2F,2 | 
[V:1] A4A2A2 | 
[V:2] c4c4 | 
[V:3] A2A3GFE | 
[V:4] F,2F,3E,D,C, | 
[V:1] B3AF4 | 
[V:2] d8 | 
[V:3] D4z2D2 | 
[V:4] B,,4D,4 | 
[V:1] F2F2F4 | 
[V:2] d4d2d2 | 
[V:3] F4F4 | 
[V:4] D,2D,3C,B,,A,, | 
[V:1] z8 | 
[V:2] _e3dB4 | 
[V:3] G3F_E4 | 
[V:4] G,,4z2G,,2 | 
[V:1] z8 | 
[V:2] B2B2B4 | 
[V:3] D8 | 
[V:4] B,,4B,,4 | 
[V:1] z8 | 
[V:2] z8 | 
[V:3] A4A2A2 | 
[V:4] C,3B,,A,,4 | 
[V:1] z8 | 
[V:2] z8 | 
[V:3] B2d3cB2- | 
[V:4] G,,8 | 
[V:1] z8 | 
[V:2] z8 | 
[V:3] B2AGF3E | 
[V:4] D,4D,2D,2 | 
[V:1] G3GG2G2 | 
[V:2] z8 | 
[V:3] G8 | 
[V:4] E,2G,3F,E,2- | 
[V:1] G2FED4 | 
[V:2] z8 | 
[V:3] z4G4- | 
[V:4] E,2D,C,=B,,3A,, | 
[V:1] G4G2G2 | 
[V:2] c3cc2c2 | 
[V:3] G4G4 | 
[V:4] C,8 | 
[V:1] G4GFED | 
[V:2] c2BAG4 | 
[V:3] G4G4 | 
[V:4] z4C,4- | 
[V:1] C4c4 | 
[V:2] c4c2c2 | 
[V:3] A8 | 
[V:4] C,4C,4 | 
[V:1] c8 | 
[V:2] c4cBAG | 
[V:3] A4A2A2 | 
[V:4] C,4C,4 | 
[V:1] z4A4 | 
[V:2] F4f4 | 
[V:3] B3AF4 | 
[V:4] D,8 | 
[V:1] A2A2A2A2 | 
[V:2] f8 | 
[V:3] F2F2F4 | 
[V:4] D,4D,2D,2 | 
[V:1] G2B4AG | 
[V:2] z4d4 | 
[V:3] z8 | 
[V:4] _E,3D,B,,4 | 
[V:1] F8 | 
[V:2] d2d2d2d2 | 
[V:3] z8 | 
[V:4] B,,2B,,2B,,4 | 
[V:1] c4c2c2 | 
[V:2] c2_e4dc | 
[V:3] z8 | 
[V:4] z8 | 
[V:1] d2d4cB | 
[V:2] B8 | 
[V:3] z8 | 
[V:4] z8 | 
[V:1] A3GA4 | 
[V:2] f4f2f2 | 
[V:3] z8 | 
[V:4] z8 | 
[V:1] G8 | 
[V:2] g2g4fe | 
[V:3] G3GG2G2 | 
[V:4] z8 | 
[V:1] z8 | 
[V:2] d3cd4 | 
[V:3] G2FED4 | 
[V:4] z8 | 
[V:1] G6G2 | 
[V:2] c8 | 
[V:3] G4G2G2 | 
[V:4] C,3C,C,2C,2 | 
[V:1] G2G4G2 | 
[V:2] z8 | 
[V:3] G4GFED | 
[V:4] C,2B,,A,,G,,4 | 
[V:1] E3DC4 | 
[V:2] c6c2 | 
[V:3] C4c4 | 
[V:4] C,4C,2C,2 | 
[V:1] E3FG2G2 | 
[V:2] c2c4c2 | 
[V:3] c8 | 
[V:4] C,4C,B,,A,,G,, | 
[V:1] A4A4- | 
[V:2] A3GF4 | 
[V:3] z4A4 | 
[V:4] F,,4F,4 | 
[V:1] A2A2A4 | 
[V:2] A3Bc2c2 | 
[V:3] A2A2A2A2 | 
[V:4] F,8 | 
[V:1] D2D2D2D2 | 
[V:2] d4d4- | 
[V:3] G2B4AG | 
[V:4] z4D,4 | 
[V:1] F6F2 | 
[V:2] d2d2d4 | 
[V:3] F8 | 
[V:4] D,2D,2D,2D,2 | 
[V:1] G8 | 
[V:2] G2G2G2G2 | 
[V:3] c4c2c2 | 
[V:4] C,2_E,4D,C, | 
[V:1] z2F2F3G | 
[V:2] B6B2 | 
[V:3] d2d4cB | 
[V:4] B,,8 | 
[V:1] A2B2c2A2 | 
[V:2] c8 | 
[V:3] A3GA4 | 
[V:4] F,4F,2F,2 | 
[V:1] B4G4 | 
[V:2] z2B2B3c | 
[V:3] G8 | 
[V:4] G,2G,4F,E, | 
[V:1] z8 | 
[V:2] d2e2f2d2 | 
[V:3] z8 | 
[V:4] D,3C,D,4 | 
[V:1] G4G2G2 | 
[V:2] e4c4 | 
[V:3] G6G2 | 
[V:4] C,8 | 
[V:1] G2FED2D2 | 
[V:2] z8 | 
[V:3] G2G4G2 | 
[V:4] z8 | 
[V:1] C4E2F2 | 
[V:2] c4c2c2 | 
[V:3] E3DC4 | 
[V:4] C,6C,2 | 
[V:1] G4G4 | 
[V:2] c2BAG2G2 | 
[V:3] E3FG2G2 | 
[V:4] C,2C,4C,2 | 
[V:1] C4c4 | 
[V:2] F4A2B2 | 
[V:3] A4A4- | 
[V:4] A,,3G,,F,,4 | 
[V:1] c6BA | 
[V:2] c4c4 | 
[V:3] A2A2A4 | 
[V:4] A,,3B,,C,2C,2 | 
[V:1] A4z4 | 
[V:2] F4f4 | 
[V:3] D2D2D2D2 | 
[V:4] D,4D,4- | 
[V:1] A4A2A2 | 
[V:2] f6ed | 
[V:3] F6F2 | 
[V:4] D,2D,2D,4 | 
[V:1] B3AG2G2 | 
[V:2] d4z4 | 
[V:3] G8 | 
[V:4] G,,2G,,2G,,2G,,2 | 
[V:1] F2D2F3E/D/ | 
[V:2] d4d2d2 | 
[V:3] z2F2F3G | 
[V:4] B,,6B,,2 | 
[V:1] C2G2A2A2 | 
[V:2] e3dc2c2 | 
[V:3] A2B2c2A2 | 
[V:4] C,8 | 
[V:1] D2d4cB | 
[V:2] B2G2B3A/G/ | 
[V:3] B4G4 | 
[V:4] z2B,,2B,,3C, | 
[V:1] A2A2A4 | 
[V:2] F2c2d2d2 | 
[V:3] z8 | 
[V:4] D,2E,2F,2D,2 | 
[V:1] z4G4 | 
[V:2] G2g4fe | 
[V:3] G4G2G2 | 
[V:4] E,4C,4 | 
[V:1] G4F4 | 
[V:2] d2d2d4 | 
[V:3] G2FED2D2 | 
[V:4] z8 | 
[V:1] E3DC4 | 
[V:2] z4c4 | 
[V:3] C4E2F2 | 
[V:4] C,4C,2C,2 | 
[V:1] G6G2 | 
[V:2] c4B4 | 
[V:3] G4G4 | 
[V:4] C,2B,,A,,G,,2G,,2 | 
[V:1] A2c4BA | 
[V:2] A3GF4 | 
[V:3] C4c4 | 
[V:4] F,,4A,,2B,,2 | 
[V:1] G2G2G4 | 
[V:2] c6c2 | 
[V:3] c6BA | 
[V:4] C,4C,4 | 
[V:1] z4A4 | 
[V:2] d2f4ed | 
[V:3] A4z4 | 
[V:4] F,,4F,4 | 
[V:1] A2A2A2A2 | 
[V:2] c2c2c4 | 
[V:3] A4A2A2 | 
[V:4] F,6E,D, | 
[V:1] d3cB2AG | 
[V:2] z4d4 | 
[V:3] B3AG2G2 | 
[V:4] D,4z4 | 
[V:1] A8 | 
[V:2] d2d2d2d2 | 
[V:3] F2D2F3E/D/ | 
[V:4] D,4D,2D,2 | 
[V:1] z4A2A2 | 
[V:2] g3fe2dc | 
[V:3] C2G2A2A2 | 
[V:4] _E,3D,C,2C,2 | 
[V:1] B3AF2G2 | 
[V:2] d8 | 
[V:3] D2d4cB | 
[V:4] B,,2G,,2B,,3A,,/G,,/ | 
[V:1] AG^FEF2GF | 
[V:2] z4d2d2 | 
[V:3] A2A2A4 | 
[V:4] F,,2C,2D,2D,2 | 
[V:1] G8- | 
[V:2] _e3dB2c2 | 
[V:3] z4G4 | 
[V:4] G,,8- | 
[V:1] G8 ||  
[V:2] d8 ||  
[V:3] G8 ||  
[V:4] G,,8 ||  
[V:1]  [K:F] [K:clef=treble][M:2/1]z8 | 
[V:2]  [K:F] [K:clef=treble-8][M:2/1]z8 | 
[V:3]  [K:F] [K:clef=treble-8][M:2/1]G6G2 | 
[V:4]  [K:F] [K:clef=bass][M:2/1]z8 | 
[V:1] z8 | 
[V:2] z8 | 
[V:3] G4F4 | 
[V:4] z8 | 
[V:1] z8 | 
[V:2] z8 | 
[V:3] E4E3F | 
[V:4] C,6C,2 | 
[V:1] z8 | 
[V:2] z8 | 
[V:3] G2A3GG2 | 
[V:4] C,4B,,4 | 
[V:1] z8 | 
[V:2] z8 | 
[V:3] A8 | 
[V:4] A,,4A,,3B,, | 
[V:1] z8 | 
[V:2] z8 | 
[V:3] z4A4 | 
[V:4] C,2D,3^C,C,2 | 
[V:1] z8 | 
[V:2] z8 | 
[V:3] A4B4 | 
[V:4] D,8 | 
[V:1] z8 | 
[V:2] z8 | 
[V:3] A2B4AG | 
[V:4] z4D,4 | 
[V:1] z8 | 
[V:2] z8 | 
[V:3] F4G3_E | 
[V:4] D,4_E,4 | 
[V:1] z8 | 
[V:2] z8 | 
[V:3] F2G2_E4 | 
[V:4] D,2_E,4D,C, | 
[V:1] z8 | 
[V:2] z8 | 
[V:3] D4_E2D2- | 
[V:4] B,,4C,3A,, | 
[V:1] z8 | 
[V:2] z8 | 
[V:3] D2G3^F^F2 | 
[V:4] B,,2C,2A,,4 | 
[V:1] z8 | 
[V:2] z8 | 
[V:3] G4z4 | 
[V:4] G,,4A,,2G,,2- | 
[V:1] G6G2 | 
[V:2] z8 | 
[V:3] G4G2G2 | 
[V:4] G,,2C,3=B,,=B,,2 | 
[V:1] G4F4 | 
[V:2] z8 | 
[V:3] G2c2A2B2 | 
[V:4] C,4z4 | 
[V:1] E4E3F | 
[V:2] c6c2 | 
[V:3] c8 | 
[V:4] C,4C,2C,2 | 
[V:1] G2A3GG2 | 
[V:2] c4B4 | 
[V:3] z8 | 
[V:4] C,2F,2D,2E,2 | 
[V:1] A8 | 
[V:2] A4A3B | 
[V:3] z8 | 
[V:4] F,8 | 
[V:1] z4A4 | 
[V:2] c2d3^c^c2 | 
[V:3] z8 | 
[V:4] z8 | 
[V:1] A4B4 | 
[V:2] d8 | 
[V:3] z8 | 
[V:4] z8 | 
[V:1] A2B4AG | 
[V:2] z4d4 | 
[V:3] z8 | 
[V:4] z8 | 
[V:1] F4G3_E | 
[V:2] d4_e4 | 
[V:3] z8 | 
[V:4] z8 | 
[V:1] F2G2_E4 | 
[V:2] d2_e4dc | 
[V:3] z8 | 
[V:4] z8 | 
[V:1] D4_E2D2- | 
[V:2] B4c3A | 
[V:3] z8 | 
[V:4] z8 | 
[V:1] D2G3^FF2 | 
[V:2] B2c2A4 | 
[V:3] z8 | 
[V:4] z8 | 
[V:1] G4z4 | 
[V:2] G4A2G2- | 
[V:3] z8 | 
[V:4] z8 | 
[V:1] G4G2G2 | 
[V:2] G2c3=B=B2 | 
[V:3] z8 | 
[V:4] z8 | 
[V:1] G2c2A2B2 | 
[V:2] c4z4 | 
[V:3] z2A2A2G2 | 
[V:4] z8 | 
[V:1] c8 | 
[V:2] c4c2c2 | 
[V:3] A2F3EE2 | 
[V:4] z8 | 
[V:1] z8 | 
[V:2] c2f2d2e2 | 
[V:3] F4G4 | 
[V:4] z2D,2D,2C,2 | 
[V:1] z8 | 
[V:2] f8 | 
[V:3] F3ED2C2 | 
[V:4] D,2B,,3A,,A,,2 | 
[V:1] z8 | 
[V:2] z8 | 
[V:3] D4E4 | 
[V:4] B,,4C,4 | 
[V:1] z8 | 
[V:2] z8 | 
[V:3] D2F2G2D2- | 
[V:4] B,,3A,,G,,F,,3 | 
[V:1] z8 | 
[V:2] z8 | 
[V:3] D2G2^FE^F2 | 
[V:4] G,,4A,,4 | 
[V:1] z8 | 
[V:2] z8 | 
[V:3] G8 | 
[V:4] G,,2B,,2C,2G,,2- | 
[V:1] z8 | 
[V:2] z8 | 
[V:3] z4d2d2 | 
[V:4] G,,2C,2=B,,A,,=B,,2 | 
[V:1] z8 | 
[V:2] z8 | 
[V:3] cBAGA2A2 | 
[V:4] C,8 | 
[V:1] z8 | 
[V:2] z8 | 
[V:3] G3ABcd2- | 
[V:4] z4G,2G,2 | 
[V:1] z8 | 
[V:2] z8 | 
[V:3] dcc4=B2 | 
[V:4] F,E,D,C,D,2D,2 | 
[V:1] z8 | 
[V:2] z8 | 
[V:3] c3BA2G2 | 
[V:4] C,3D,E,F,G,2- | 
[V:1] z2A2A2G2 | 
[V:2] z8 | 
[V:3] A4B4 | 
[V:4] G,F,F,4E,2 | 
[V:1] A2F3EE2 | 
[V:2] z8 | 
[V:3] A4z4 | 
[V:4] F,3E,D,2C,2 | 
[V:1] F4G4 | 
[V:2] z2d2d2c2 | 
[V:3] z8 | 
[V:4] D,4E,4 | 
[V:1] F3ED2C2 | 
[V:2] d2B3AA2 | 
[V:3] z8 | 
[V:4] D,4z4 | 
[V:1] D4E4 | 
[V:2] B4c4 | 
[V:3] z8 | 
[V:4] z8 | 
[V:1] D2F2G2D2- | 
[V:2] B3AG2F2 | 
[V:3] z8 | 
[V:4] z8 | 
[V:1] D2G2^FEF2 | 
[V:2] G4A4 | 
[V:3] z8 | 
[V:4] z8 | 
[V:1] G8 | 
[V:2] G2B2c2G2- | 
[V:3] z8 | 
[V:4] z8 | 
[V:1] z4d2d2 | 
[V:2] G2c2=BA=B2 | 
[V:3] z8 | 
[V:4] z8 | 
[V:1] cBAGA2A2 | 
[V:2] c8 | 
[V:3] z8 | 
[V:4] z8 | 
[V:1] G3ABcd2- | 
[V:2] z4g2g2 | 
[V:3] z8 | 
[V:4] z8 | 
[V:1] dcc4=B2 | 
[V:2] fedcd2d2 | 
[V:3] z8 | 
[V:4] z8 | 
[V:1] c3BA2G2 | 
[V:2] c3defg2- | 
[V:3] z2c4B2 | 
[V:4] z8 | 
[V:1] A4B4 | 
[V:2] gff4e2 | 
[V:3] c2A2G2G2 | 
[V:4] z8 | 
[V:1] A4z4 | 
[V:2] f3ed2c2 | 
[V:3] F4z4 | 
[V:4] z2F,4E,2 | 
[V:1] z8 | 
[V:2] d4e4 | 
[V:3] A4A4 | 
[V:4] F,2D,2C,2C,2 | 
[V:1] z8 | 
[V:2] d4z4 | 
[V:3] B3AG4 | 
[V:4] B,,4z4 | 
[V:1] z8 | 
[V:2] z8 | 
[V:3] F4z2F2 | 
[V:4] D,4D,4 | 
[V:1] z8 | 
[V:2] z8 | 
[V:3] G4A4 | 
[V:4] _E,3D,C,4 | 
[V:1] z8 | 
[V:2] z8 | 
[V:3] B2AGF2B2 | 
[V:4] B,,4z2B,,2 | 
[V:1] z8 | 
[V:2] z8 | 
[V:3] A2G3FF2 | 
[V:4] C,4D,4 | 
[V:1] z8 | 
[V:2] z8 | 
[V:3] G2G2G2G2 | 
[V:4] _E,2D,C,B,,2E,2 | 
[V:1] z8 | 
[V:2] z8 | 
[V:3] G2FED2D2 | 
[V:4] D,2C,3=B,,=B,,2 | 
[V:1] z8 | 
[V:2] z8 | 
[V:3] C4z4 | 
[V:4] C,2C,2C,2C,2 | 
[V:1] z8 | 
[V:2] z8 | 
[V:3] G4G2G2 | 
[V:4] C,2B,,A,,G,,2G,,2 | 
[V:1] z2c4B2 | 
[V:2] z8 | 
[V:3] A2A4G2 | 
[V:4] F,,4z4 | 
[V:1] c2A2G2G2 | 
[V:2] z8 | 
[V:3] A2GFE2E2 | 
[V:4] C,4C,2C,2 | 
[V:1] F4z4 | 
[V:2] z2f4e2 | 
[V:3] D4z4 | 
[V:4] D,2D,4C,2 | 
[V:1] A4A4 | 
[V:2] f2d2c2c2 | 
[V:3] z8 | 
[V:4] D,2C,B,,A,,2A,,2 | 
[V:1] B3AG4 | 
[V:2] B4z4 | 
[V:3] z8 | 
[V:4] G,,4z4 | 
[V:1] F4z2F2 | 
[V:2] d4d4 | 
[V:3] z8 | 
[V:4] z8 | 
[V:1] G4A4 | 
[V:2] _e3dc4 | 
[V:3] z8 | 
[V:4] z8 | 
[V:1] B2AGF2B2 | 
[V:2] B4z2B2 | 
[V:3] z8 | 
[V:4] z8 | 
[V:1] A2G3FF2 | 
[V:2] c4d4 | 
[V:3] z8 | 
[V:4] z8 | 
[V:1] G2G2G2G2 | 
[V:2] _e2dcB2_e2 | 
[V:3] z8 | 
[V:4] z8 | 
[V:1] G2FED2D2 | 
[V:2] d2c3=B=B2 | 
[V:3] z8 | 
[V:4] z8 | 
[V:1] C4z4 | 
[V:2] c2c2c2c2 | 
[V:3] z8 | 
[V:4] z8 | 
[V:1] G4G2G2 | 
[V:2] c2BAG2G2 | 
[V:3] z8 | 
[V:4] z8 | 
[V:1] A2A4G2 | 
[V:2] F4z4 | 
[V:3] z2F2F2E2 | 
[V:4] z8 | 
[V:1] A2GFE2E2 | 
[V:2] c4c2c2 | 
[V:3] F2G2A4 | 
[V:4] z8 | 
[V:1] D4z4 | 
[V:2] d2d4c2 | 
[V:3] B3AFGA2- | 
[V:4] z2B,,2B,,2A,,2 | 
[V:1] z8 | 
[V:2] d2cBA2A2 | 
[V:3] A2G3^F^F2 | 
[V:4] B,,2C,2D,4 | 
[V:1] z8 | 
[V:2] G4z4 | 
[V:3] G4z4 | 
[V:4] _E,3D,B,,C,D,2- | 
[V:1] z8 | 
[V:2] z8 | 
[V:3] G4G2G2 | 
[V:4] D,2C,3=B,,=B,,2 | 
[V:1] z8 | 
[V:2] z8 | 
[V:3] G4A4 | 
[V:4] C,4z4 | 
[V:1] z8 | 
[V:2] z8 | 
[V:3] G2E4G2- | 
[V:4] C,4C,2C,2 | 
[V:1] z8 | 
[V:2] z8 | 
[V:3] G2FEF4 | 
[V:4] C,4D,4 | 
[V:1] z8 | 
[V:2] z8 | 
[V:3] E2c4BA | 
[V:4] C,2A,,4C,2- | 
[V:1] z8 | 
[V:2] z8 | 
[V:3] G2A4G2 | 
[V:4] C,2B,,A,,B,,4 | 
[V:1] z8 | 
[V:2] z8 | 
[V:3] A2A4G2 | 
[V:4] A,,2F,4E,D, | 
[V:1] z8 | 
[V:2] z8 | 
[V:3] A2F2G2A2 | 
[V:4] C,2D,4C,2 | 
[V:1] z2F2F2E2 | 
[V:2] z8 | 
[V:3] D4A2A2- | 
[V:4] D,2D,4C,2 | 
[V:1] F2G2A4 | 
[V:2] z8 | 
[V:3] A2B2A4 | 
[V:4] D,2B,,2C,2D,2 | 
[V:1] B3AFGA2- | 
[V:2] z2B2B2A2 | 
[V:3] G3FD4 | 
[V:4] G,,4D,2D,2- | 
[V:1] A2G3FF2 | 
[V:2] B2c2d4 | 
[V:3] z8 | 
[V:4] D,2_E,2D,4 | 
[V:1] G4z4 | 
[V:2] _e3dBcd2- | 
[V:3] z8 | 
[V:4] C,3B,,G,,4 | 
[V:1] G4G2G2 | 
[V:2] d2c3BB2 | 
[V:3] z8 | 
[V:4] z8 | 
[V:1] G4A4 | 
[V:2] c4z4 | 
[V:3] z8 | 
[V:4] z8 | 
[V:1] G2E4G2- | 
[V:2] c4c2c2 | 
[V:3] z8 | 
[V:4] z8 | 
[V:1] G2FEF4 | 
[V:2] c4d4 | 
[V:3] z8 | 
[V:4] z8 | 
[V:1] E2c4BA | 
[V:2] c2A4c2- | 
[V:3] z8 | 
[V:4] z8 | 
[V:1] G2A4G2 | 
[V:2] c2BAB4 | 
[V:3] z8 | 
[V:4] z8 | 
[V:1] A2A4G2 | 
[V:2] A2f4ed | 
[V:3] z8 | 
[V:4] z8 | 
[V:1] A2F2G2A2 | 
[V:2] c2d4c2 | 
[V:3] z8 | 
[V:4] z8 | 
[V:1] D4A2A2- | 
[V:2] d2d4c2 | 
[V:3] D4D2F2- | 
[V:4] z8 | 
[V:1] A2B2A4 | 
[V:2] d2B2c2d2 | 
[V:3] F2G2A2F2 | 
[V:4] z8 | 
[V:1] G3FD4 | 
[V:2] G4d2d2- | 
[V:3] B4B4 | 
[V:4] G,,4G,,2B,,2- | 
[V:1] z8 | 
[V:2] d2_e2d4 | 
[V:3] G4z4 | 
[V:4] B,,2C,2D,2B,,2 | 
[V:1] z8 | 
[V:2] c3BG4 | 
[V:3] c2c4B2 | 
[V:4] _E,4E,4 | 
[V:1] z8 | 
[V:2] z8 | 
[V:3] A2GFG4 | 
[V:4] C,4z4 | 
[V:1] z8 | 
[V:2] z8 | 
[V:3] A6G2 | 
[V:4] F,2F,4E,2 | 
[V:1] z8 | 
[V:2] z8 | 
[V:3] F2EDE4 | 
[V:4] D,2C,B,,C,4 | 
[V:1] z8 | 
[V:2] z8 | 
[V:3] D3EFGA2- | 
[V:4] D,6C,2 | 
[V:1] z8 | 
[V:2] z8 | 
[V:3] A2G3E^F2 | 
[V:4] B,,2A,,G,,A,,4 | 
[V:1] z8 | 
[V:2] z8 | 
[V:3] G2D2D2D2 | 
[V:4] G,,3A,,B,,C,D,2- | 
[V:1] z8 | 
[V:2] z8 | 
[V:3] F2G2A2F2 | 
[V:4] D,2C,3A,,B,,2 | 
[V:1] z8 | 
[V:2] z8 | 
[V:3] E4E4 | 
[V:4] C,2G,,2G,,2G,,2 | 
[V:1] D4D2F2- | 
[V:2] z8 | 
[V:3] D8 | 
[V:4] B,,2C,2D,2B,,2 | 
[V:1] F2G2A2F2 | 
[V:2] z8 | 
[V:3] z4F4 | 
[V:4] A,,4A,,4 | 
[V:1] B4B4 | 
[V:2] G4G2B2- | 
[V:3] G8- | 
[V:4] G,,8 | 
[V:1] G4z4 | 
[V:2] B2c2d2B2 | 
[V:3] G8 | 
[V:4] z4B,,4 | 
[V:1] c2c4B2 | 
[V:2] _e4_e4 | 
[V:3] C8 | 
[V:4] C,8- | 
[V:1] A2GFG4 | 
[V:2] c4z4 | 
[V:3] z4E4 | 
[V:4] C,8 | 
[V:1] A6G2 | 
[V:2] f2f4e2 | 
[V:3] F3GA4- | 
[V:4] F,,8 | 
[V:1] F2EDE4 | 
[V:2] d2cBc4 | 
[V:3] A4A4 | 
[V:4] z4A,,4 | 
[V:1] D3EFGA2- | 
[V:2] d6c2 | 
[V:3] D2G2F3E | 
[V:4] B,,3C,D,4- | 
[V:1] A2G3E^F2 | 
[V:2] B2AGA4 | 
[V:3] D4z2A2 | 
[V:4] D,4D,4 | 
[V:1] G8- | 
[V:2] G8- | 
[V:3] B2c2d4- | 
[V:4] G,,2C,2B,,3A,, | 
[V:1] G8- | 
[V:2] G8- | 
[V:3] d2c2B2A2 | 
[V:4] G,,8- | 
[V:1] G8- | 
[V:2] G8- | 
[V:3] G2F2_E2_E2 | 
[V:4] G,,8- | 
[V:1] G8- | 
[V:2] G8- | 
[V:3] D8 | 
[V:4] G,,8- | 
[V:1] G8 |]  
[V:2] G8 |]  
[V:3] D8 |]  
[V:4] G,,8 |]  



